app/public/dtpr-icons/ai.svg

<svg width="36" height="36" viewBox="0 0 36 36" fill="none" xmlns="http://www.w3.org/2000/svg">
<path fill-rule="evenodd" clip-rule="evenodd" d="M15.396 14.127L16.687 17.677H13.783L15.396 14.127ZM17.333 19.455L18.531 22.748C18.662 23.109 19.003 23.334 19.366 23.334C19.467 23.334 19.57 23.316 19.67 23.28C20.132 23.112 20.369 22.602 20.202 22.141L16.323 11.474C16.2 11.135 15.883 10.904 15.522 10.89C15.161 10.876 14.828 11.081 14.678 11.41L9.82997 22.077C9.62697 22.523 9.82397 23.05 10.271 23.253C10.718 23.457 11.245 23.259 11.448 22.813L12.975 19.455H17.333Z" fill="black"/>
<path fill-rule="evenodd" clip-rule="evenodd" d="M23.333 10.8887C22.843 10.8887 22.444 11.2867 22.444 11.7777V22.4447C22.444 22.9357 22.843 23.3337 23.333 23.3337C23.824 23.3337 24.223 22.9357 24.223 22.4447V11.7777C24.223 11.2867 23.824 10.8887 23.333 10.8887Z" fill="black"/>
<path fill-rule="evenodd" clip-rule="evenodd" d="M20.4785 27.0669H18.8885V25.1109C18.8885 24.6199 18.4905 24.2219 17.9995 24.2219C17.5095 24.2219 17.1115 24.6199 17.1115 25.1109V27.0669H17.1095H15.5185C15.1185 27.0669 14.9225 27.5469 15.2075 27.8219L17.6875 30.3109C17.8655 30.4889 18.1405 30.4889 18.3185 30.3109L20.7985 27.8309C21.0745 27.5469 20.8785 27.0669 20.4785 27.0669Z" fill="black"/>
<path fill-rule="evenodd" clip-rule="evenodd" d="M18 10C18.491 10 18.889 9.602 18.889 9.111V6.444C18.889 5.954 18.491 5.556 18 5.556C17.509 5.556 17.111 5.954 17.111 6.444V9.111C17.111 9.602 17.509 10 18 10Z" fill="black"/>
<rect x="2" y="2" width="32" height="32" rx="16" stroke="black" stroke-width="2"/>
</svg>

<svg xmlns="http://www.w3.org/2000/svg" width="36" height="36" fill="none"><path fill="#000" fill-rule="evenodd" d="m15.396 14.127 1.291 3.55h-2.904zm1.937 5.328 1.198 3.293a.89.89 0 1 0 1.671-.607l-3.879-10.667a.889.889 0 0 0-1.645-.064L9.83 22.077a.888.888 0 1 0 1.618.736l1.527-3.358zM23.333 10.889a.89.89 0 0 0-.889.889v10.667a.89.89 0 0 0 1.779 0V11.778a.89.89 0 0 0-.89-.89M20.479 27.067h-1.59V25.11a.889.889 0 1 0-1.777 0v1.956h-1.593a.44.44 0 0 0-.312.755l2.48 2.489a.44.44 0 0 0 .631 0l2.48-2.48a.45.45 0 0 0-.32-.764M18 10a.89.89 0 0 0 .889-.889V6.444a.889.889 0 0 0-1.778 0v2.667c0 .491.398.889.889.889" clip-rule="evenodd"/><rect width="32" height="32" x="2" y="2" stroke="#000" stroke-width="2" rx="16"/></svg>
